source/img/icons/star.svg

<svg width="4" height="4" viewBox="0 0 4 4" fill="none" xmlns="http://www.w3.org/2000/svg">
<path d="M0.821688 3.264L1.50969 2.272L0.421688 1.92L0.597688 1.344L1.70169 1.76L1.66969 0.591999H2.32569L2.29369 1.76L3.39769 1.344L3.57369 1.92L2.48569 2.272L3.18969 3.264L2.67769 3.616L2.00569 2.576L1.31769 3.616L0.821688 3.264Z" fill="#FF8282"/>
</svg>

<svg xmlns="http://www.w3.org/2000/svg" width="4" height="4" fill="none"><path fill="#FF8282" d="m.8 3.3.7-1-1-.4.1-.6 1.1.5V.6h.6v1.2l1.1-.5.2.6-1.1.4.7 1-.5.3-.7-1-.7 1-.5-.3Z"/></svg>
